svg/fluentui-system-icons/ic_fluent_align_distribute_top_16_regular.svg

<svg width="16" height="16" viewBox="0 0 16 16" fill="none" xmlns="http://www.w3.org/2000/svg">
<path d="M1.5 1C1.22386 1 1 1.22386 1 1.5C1 1.77614 1.22386 2 1.5 2L14.5 2C14.7761 2 15 1.77615 15 1.5C15 1.22386 14.7761 1 14.5 1L1.5 1ZM1.5 8C1.22386 8 1 8.22386 1 8.5C1 8.77614 1.22386 9 1.5 9L14.5 9C14.7761 9 15 8.77615 15 8.5C15 8.22386 14.7761 8 14.5 8L1.5 8ZM9.5 14C10.3284 14 11 13.3284 11 12.5V11.5C11 10.6716 10.3284 10 9.5 10H6.5C5.67157 10 5 10.6716 5 11.5L5 12.5C5 13.3284 5.67157 14 6.5 14H9.5ZM10 12.5C10 12.7761 9.77614 13 9.5 13L6.5 13C6.22386 13 6 12.7761 6 12.5V11.5C6 11.2239 6.22386 11 6.5 11H9.5C9.77614 11 10 11.2239 10 11.5V12.5ZM11.5 7C12.3284 7 13 6.32843 13 5.5V4.5C13 3.67157 12.3284 3 11.5 3H4.5C3.67157 3 3 3.67157 3 4.5L3 5.5C3 6.32843 3.67157 7 4.5 7H11.5ZM12 5.5C12 5.77614 11.7761 6 11.5 6H4.5C4.22386 6 4 5.77614 4 5.5L4 4.5C4 4.22386 4.22386 4 4.5 4H11.5C11.7761 4 12 4.22386 12 4.5V5.5Z" fill="#212121"/>
</svg>

<svg xmlns="http://www.w3.org/2000/svg" width="16" height="16"><path d="M1.5 1a.5.5 0 0 0 0 1h13a.5.5 0 0 0 0-1h-13Zm0 7a.5.5 0 0 0 0 1h13a.5.5 0 0 0 0-1h-13Zm8 6a1.5 1.5 0 0 0 1.5-1.5v-1A1.5 1.5 0 0 0 9.5 10h-3A1.5 1.5 0 0 0 5 11.5v1A1.5 1.5 0 0 0 6.5 14h3Zm.5-1.5a.5.5 0 0 1-.5.5h-3a.5.5 0 0 1-.5-.5v-1a.5.5 0 0 1 .5-.5h3a.5.5 0 0 1 .5.5v1ZM11.5 7A1.5 1.5 0 0 0 13 5.5v-1A1.5 1.5 0 0 0 11.5 3h-7A1.5 1.5 0 0 0 3 4.5v1A1.5 1.5 0 0 0 4.5 7h7Zm.5-1.5a.5.5 0 0 1-.5.5h-7a.5.5 0 0 1-.5-.5v-1a.5.5 0 0 1 .5-.5h7a.5.5 0 0 1 .5.5v1Z"/></svg>
